public/logo.svg

<svg width="613" height="474" viewBox="0 0 613 474" fill="none" xmlns="http://www.w3.org/2000/svg">
<path d="M290.531 226.812C290.531 253.645 301.19 279.378 320.164 298.352C339.137 317.325 364.871 327.984 391.703 327.984C418.536 327.984 444.269 317.325 463.242 298.352C482.216 279.378 492.875 253.645 492.875 226.812C492.875 213.526 490.258 200.37 485.174 188.096C480.089 175.821 472.637 164.668 463.242 155.273C453.848 145.878 442.695 138.426 430.42 133.342C418.145 128.258 404.989 125.641 391.703 125.641C378.417 125.641 365.261 128.258 352.986 133.342C340.712 138.426 329.558 145.878 320.164 155.273C310.769 164.668 303.317 175.821 298.232 188.096C293.148 200.37 290.531 213.526 290.531 226.812Z" fill="#FFE902"/>
<path d="M391.703 348.531C324.594 348.531 269.984 293.922 269.984 226.812C269.984 159.703 324.594 105.094 391.703 105.094C458.813 105.094 513.422 159.703 513.422 226.812C513.422 293.922 458.813 348.531 391.703 348.531ZM391.703 146.266C347.328 146.266 311.156 182.359 311.156 226.812C311.156 271.266 347.328 307.359 391.703 307.359C436.078 307.359 472.172 271.188 472.172 226.734C472.172 182.281 436.078 146.266 391.703 146.266ZM298.266 28.6875C307.484 23.375 319.281 26.5 324.594 35.7187L343.891 69.0781C349.203 78.2969 346.078 90.0937 336.859 95.4062C327.641 100.719 315.844 97.5937 310.531 88.375L291.234 55.0156C285.844 45.7187 289.047 34 298.266 28.6875ZM537.094 191.5C539.828 201.812 550.375 207.906 560.688 205.094L597.875 195.094C608.187 192.359 614.281 181.812 611.469 171.5C608.734 161.187 598.187 155.094 587.875 157.906L550.688 167.906C540.453 170.641 534.359 181.187 537.094 191.5ZM526.781 278.141C524.047 288.453 530.141 299 540.375 301.734L577.562 311.734C587.875 314.469 598.422 308.375 601.156 298.141C603.891 287.828 597.797 277.281 587.563 274.547L550.375 264.547C540.141 261.812 529.594 267.906 526.781 278.141ZM426.078 0.40625C436.703 0.40625 445.375 9 445.375 19.7031V58.2188C445.375 68.8438 436.781 77.5156 426.078 77.5156C415.453 77.5156 406.781 68.9219 406.781 58.2188V19.7031C406.781 9.07812 415.375 0.40625 426.078 0.40625ZM556.625 54.7031C549.125 47.2031 536.938 47.2031 529.359 54.7031L502.094 81.9688C494.594 89.4688 494.594 101.656 502.094 109.234C509.594 116.734 521.781 116.734 529.359 109.234L556.625 81.9688C564.203 74.3906 564.203 62.2031 556.625 54.7031Z" fill="#FFE902"/>
<g filter="url(#filter0_i_31_19)">
<path d="M112.641 452.75C110.922 452.906 109.281 453.062 107.562 453.141C60.2969 455.797 20.8438 414.312 20.8438 366.422C20.8438 318.531 59.6719 279.703 107.562 279.703C110.844 279.703 114.125 279.859 117.328 280.25C117.25 278.453 117.25 276.656 117.25 274.859C117.25 208.375 171.156 154.469 237.641 154.469C296.391 154.469 345.297 196.5 355.922 252.125C361.313 251.266 366.859 250.797 372.484 250.797C428.344 250.797 473.656 296.109 473.656 351.969C473.5 387.672 455.062 419.078 427.094 437.047C411.312 447.203 392.562 453.688 372.406 453.062C369.672 452.984 367.016 452.828 364.359 452.516C363.5 452.594 362.562 452.594 361.703 452.594H112.641V452.75Z" fill="white"/>
<path d="M103.187 473.844C77.875 473.844 53.7344 464.078 34.5156 445.875C12.7188 425.25 0.21875 396.266 0.21875 366.422C0.21875 310.719 42.9531 264.703 97.3281 259.625C104.984 189.078 164.906 133.922 237.484 133.922C298.734 133.922 352.328 173.453 371.234 230.25H372.328C439.516 230.25 494.125 284.859 494.125 351.969C494.125 393.609 473.266 431.891 438.266 454.391C417.562 467.75 394.438 474.391 371.781 473.687C369.125 473.609 366.547 473.453 363.969 473.219C363.188 473.219 362.406 473.297 361.625 473.297H113.656C112.016 473.453 110.375 473.609 108.734 473.687C106.859 473.766 105.062 473.844 103.187 473.844ZM107.484 300.328C71.0781 300.328 41.3906 330.016 41.3906 366.422C41.3906 385.016 49.2031 403.062 62.7969 415.953C75.0625 427.594 90.6875 433.531 106.312 432.516C107.641 432.438 109.047 432.359 110.375 432.203L112.562 432.047H366.391C368.578 432.281 370.766 432.438 372.953 432.516C391.078 433.141 406.391 425.875 415.844 419.703C439.125 404.859 452.953 379.547 452.953 351.969C452.953 307.594 416.781 271.422 372.406 271.422C367.953 271.422 363.5 271.812 359.203 272.516L339.359 275.797L335.609 256.031C326.625 209.156 285.453 175.094 237.562 175.094C182.484 175.094 137.719 219.859 137.719 274.938C137.719 276.422 137.719 277.906 137.797 279.391L138.891 303.531L114.906 300.797C112.484 300.484 110.062 300.328 107.484 300.328Z" fill="white"/>
</g>
<defs>
<filter id="filter0_i_31_19" x="0.21875" y="133.922" width="497.906" height="343.922" filterUnits="userSpaceOnUse" color-interpolation-filters="sRGB">
<feFlood flood-opacity="0" result="BackgroundImageFix"/>
<feBlend mode="normal" in="SourceGraphic" in2="BackgroundImageFix" result="shape"/>
<feColorMatrix in="SourceAlpha" type="matrix" values="0 0 0 0 0 0 0 0 0 0 0 0 0 0 0 0 0 0 127 0" result="hardAlpha"/>
<feOffset dx="4" dy="4"/>
<feGaussianBlur stdDeviation="10"/>
<feComposite in2="hardAlpha" operator="arithmetic" k2="-1" k3="1"/>
<feColorMatrix type="matrix" values="0 0 0 0 0 0 0 0 0 0 0 0 0 0 0 0 0 0 0.25 0"/>
<feBlend mode="normal" in2="shape" result="effect1_innerShadow_31_19"/>
</filter>
</defs>
</svg>

<svg width="613" height="474" fill="none" xmlns="http://www.w3.org/2000/svg">
  <path d="M290.531 226.812a101.171 101.171 0 1 0 202.343 0 101.171 101.171 0 0 0-202.343 0Z" fill="#FFE902"/>
  <path d="M391.703 348.531c-67.109 0-121.719-54.609-121.719-121.719 0-67.109 54.61-121.718 121.719-121.718 67.11 0 121.719 54.609 121.719 121.718 0 67.11-54.609 121.719-121.719 121.719Zm0-202.265c-44.375 0-80.547 36.093-80.547 80.546 0 44.454 36.172 80.547 80.547 80.547s80.469-36.171 80.469-80.625c0-44.453-36.094-80.468-80.469-80.468ZM298.266 28.688c9.218-5.313 21.015-2.188 26.328 7.03l19.297 33.36c5.312 9.219 2.187 21.016-7.032 26.328-9.218 5.313-21.015 2.188-26.328-7.031l-19.297-33.36a19.187 19.187 0 0 1 7.032-26.328ZM537.094 191.5a19.15 19.15 0 0 0 23.594 13.594l37.187-10c10.312-2.735 16.406-13.282 13.594-23.594a19.15 19.15 0 0 0-23.594-13.594l-37.187 10c-10.235 2.735-16.329 13.281-13.594 23.594Zm-10.313 86.641c-2.734 10.312 3.36 20.859 13.594 23.593l37.187 10c10.313 2.735 20.86-3.359 23.594-13.593 2.735-10.313-3.359-20.86-13.593-23.594l-37.188-10c-10.234-2.735-20.781 3.359-23.594 13.594ZM426.078.406c10.625 0 19.297 8.594 19.297 19.297V58.22c0 10.625-8.594 19.297-19.297 19.297-10.625 0-19.297-8.594-19.297-19.297V19.703c0-10.625 8.594-19.297 19.297-19.297Zm130.547 54.297c-7.5-7.5-19.687-7.5-27.266 0L502.094 81.97c-7.5 7.5-7.5 19.687 0 27.265 7.5 7.5 19.687 7.5 27.265 0l27.266-27.265c7.578-7.578 7.578-19.766 0-27.266Z" fill="#FFE902"/>
  <path d="M112.641 452.75c-1.719.156-3.36.312-5.079.391-47.265 2.656-86.718-38.829-86.718-86.719 0-47.891 38.828-86.719 86.718-86.719 3.282 0 6.563.156 9.766.547-.078-1.797-.078-3.594-.078-5.391 0-66.484 53.906-120.39 120.391-120.39 58.75 0 107.656 42.031 118.281 97.656a105.33 105.33 0 0 1 16.562-1.328c55.86 0 101.172 45.312 101.172 101.172-.156 35.703-18.594 67.109-46.562 85.078-15.782 10.156-34.532 16.641-54.688 16.015-2.734-.078-5.39-.234-8.047-.546-.859.078-1.797.078-2.656.078H112.641v.156Z" fill="#F2F2F2"/>
  <path d="M103.187 473.844c-25.312 0-49.453-9.766-68.671-27.969C12.719 425.25.219 396.266.219 366.422c0-55.703 42.734-101.719 97.11-106.797 7.655-70.547 67.577-125.703 140.155-125.703 61.25 0 114.844 39.531 133.75 96.328h1.094c67.188 0 121.797 54.609 121.797 121.719 0 41.64-20.859 79.922-55.859 102.422-20.703 13.359-43.828 20-66.485 19.296a127.315 127.315 0 0 1-7.812-.468c-.781 0-1.563.078-2.344.078H113.656c-1.64.156-3.281.312-4.922.39-1.875.079-3.672.157-5.547.157Zm4.297-173.516c-36.406 0-66.093 29.688-66.093 66.094 0 18.594 7.812 36.64 21.406 49.531 12.266 11.641 27.89 17.578 43.515 16.563 1.329-.078 2.735-.157 4.063-.313l2.187-.156h253.829c2.187.234 4.375.391 6.562.469 18.125.625 33.438-6.641 42.891-12.813 23.281-14.844 37.109-40.156 37.109-67.734 0-44.375-36.172-80.547-80.547-80.547-4.453 0-8.906.39-13.203 1.094l-19.844 3.281-3.75-19.766c-8.984-46.875-50.156-80.937-98.047-80.937-55.078 0-99.843 44.765-99.843 99.844 0 1.484 0 2.968.078 4.453l1.094 24.14-23.985-2.734a57.264 57.264 0 0 0-7.422-.469Z" fill="#F2F2F2"/>
</svg>
